X: 163
T: Nitzotz Ha ahava
C: Greek 1994
O: Israel
F: http://www.youtube.com/watch?v=0X3x4NIOuPk
F: http://www.youtube.com/watch?v=dsK1IsVy08Y
F: http://www.youtube.com/watch?v=B7825vHE3_k
M: 2/4
L: 1/8
Q: 1/4=160
K: Am
%%MIDI program 70
%%MIDI bassprog 27
%%MIDI gchord fz
|:z3^C|"Am"E2 E2|E2 E2|F3 E    |D3 ^C |D2 FE  |D3 ^C |^C_B, A,2 :|
|:z3^C|F2 FE    |D3^C |D^C_B,2-|_B,3A,|_B,2D^C|_B,3A,|A,4       :|



